svg/Outline/book.svg

<svg viewBox="0 0 24 24" xmlns="http://www.w3.org/2000/svg" width="24" height="24"><path fill-rule="evenodd" d="M3.05 4.07q4.17.07 6.56 1.2a6 6 0 0 1 2.4 1.95 6 6 0 0 1 2.38-1.94q2.56-1.21 7.13-1.21h.16q.17.01.32.07l.15.05.15.07q.15.07.26.18l.12.1.11.12.18.27.07.15.05.15q.07.22.07.47v12.82a1.63 1.63 0 0 1-1.63 1.47c-5.81 0-7.7.98-8.83 2.39a.9.9 0 0 1-1.4 0c-1.12-1.4-3.02-2.4-8.83-2.4q-.75-.01-1.22-.55-.36-.46-.4-1V5.7q0-.32.12-.62l.07-.15q.11-.21.28-.39l.12-.1q.18-.16.41-.25L2 4.14q.24-.07.48-.07zm-.4 14.12c4.21.01 6.75.54 8.45 1.62V9.48A3.9 3.9 0 0 0 8.84 6.9c-1.34-.63-3.33-1-6.2-1.03zm18.7-12.32c-2.86.02-4.85.4-6.18 1.03a3.9 3.9 0 0 0-2.27 2.6v10.3c1.7-1.08 4.23-1.6 8.46-1.62z" clip-rule="evenodd"/></svg>

<svg viewBox="0 0 24 24" xmlns="http://www.w3.org/2000/svg" width="24" height="24"><path fill-rule="evenodd" d="M3.05 4.07Q7.22 4.14 9.61 5.27A6 6 0 0 1 12.01 7.22A6 6 0 0 1 14.39 5.28Q16.95 4.07 21.52 4.07L21.68 4.07Q21.85 4.08 22 4.14L22.3 4.26Q22.45 4.33 22.56 4.44L22.79 4.66L23.04 5.08L23.09 5.23Q23.16 5.45 23.16 5.7L23.16 18.52A1.63 1.63 0 0 1 21.53 19.99C15.72 19.99 13.83 20.97 12.7 22.38A.9 .9 0 0 1 11.3 22.38C10.18 20.98 8.28 19.98 2.47 19.98Q1.72 19.97 1.25 19.43Q.89 18.97 .85 18.43L.85 5.7Q.85 5.38 .97 5.08L1.04 4.93Q1.15 4.72 1.32 4.54L1.44 4.44Q1.62 4.28 1.85 4.19L2 4.14Q2.24 4.07 2.48 4.07ZM2.65 18.19c4.21.01 6.75.54 8.45 1.62V9.48A3.9 3.9 0 0 0 8.84 6.9c-1.34-.63-3.33-1-6.2-1.03zm18.7-12.32c-2.86.02-4.85.4-6.18 1.03a3.9 3.9 0 0 0-2.27 2.6v10.3c1.7-1.08 4.23-1.6 8.46-1.62z" clip-rule="evenodd"/></svg>
